public/assets/logos/software/adobe-after-effects.svg

<svg fill="none" height="10" viewBox="0 0 10 10" width="10" xmlns="http://www.w3.org/2000/svg" xmlns:xlink="http://www.w3.org/1999/xlink"><clipPath id="a"><path d="m0 0h10v9.752h-10z"/></clipPath><g clip-path="url(#a)"><path d="m1.77084.00100708h6.45832c.97916 0 1.77084.79167992 1.77084 1.77084292v6.20832c0 .97916-.79168 1.77084-1.77084 1.77084h-6.45832c-.97916 0-1.77084-.79168-1.77084-1.77084v-6.20832c0-.979163.79168-1.77084292 1.77084-1.77084292z" fill="#00005b"/><path d="m4.01668 5.83432h-1.55l-.31668.98332c-.00832.03748-.04168.06248-.07916.05832h-.78332c-.04584 0-.05832-.025-.04584-.075l1.34168-3.84584c.01248-.04168.025-.07916.04168-.12916.01668-.08748.025-.17916.025-.27084-.00416-.02084.01248-.04168.03332-.04584h1.07916c.02916 0 .05.01248.05416.03332l1.52084 4.25c.01252.04584 0 .06668-.04168.06668h-.87084c-.02916.00416-.05832-.01668-.06668-.04584l-.34168-1v.02084zm-1.30832-.82916h1.05832c-.025-.08748-.05832-.19168-.09584-.3-.03752-.11248-.075-.23332-.11248-.35832-.04168-.12916-.07916-.25416-.12084-.38332s-.07916-.25-.11248-.37084c-.03332-.11668-.06248-.225-.09168-.325h-.00832c-.03752.17916-.08332.35832-.14168.53752-.06248.2-.125.40832-.19168.61668-.05416.21248-.12084.40832-.18332.58332zm5.08332.45416h-1.32084c.01668.12916.05832.25832.12916.37084.075.11248.17916.2.30416.25.16668.07084.35.10832.53332.10416.14584-.00416.29168-.01668.43332-.04584.12916-.01668.25416-.05.37084-.09584.02084-.01668.03332-.00832.03332.03332v.63752c0 .01668-.00416.03332-.00832.05-.00832.01252-.01668.02084-.02916.02916-.13332.05832-.27084.1-.41668.125-.19584.03748-.39168.05416-.59168.05-.31668 0-.58332-.05-.8-.14584-.20416-.08752-.38332-.225-.525-.39584-.13332-.16248-.22916-.34584-.28748-.54584-.05832-.19584-.08752-.4-.08752-.60832 0-.225.03332-.44584.10416-.66252.06668-.20832.17084-.4.31248-.57084.13752-.16668.30832-.3.50416-.39584s.42916-.12916.69584-.12916c.22084-.00416.44168.03752.64584.12916.17084.075.32084.18752.43752.33332.10832.14168.19584.3.25.475.05416.16668.07916.33748.07916.50832 0 .1-.00416.18752-.00832.26668-.00832.07916-.01252.13752-.01668.175-.00416.02916-.02916.05416-.05832.05416-.025 0-.07084.00416-.13752.00832-.06668.00832-.14584.01252-.24168.01252s-.19584-.01668-.30416-.01668zm-1.32084-.60832h.87916c.10832 0 .18752 0 .23748-.00416.03332-.00416.06668-.01252.09584-.03332v-.04168c0-.05416-.00832-.10416-.025-.15416-.075-.23332-.29584-.39168-.54168-.38332-.22916-.01252-.44584.10832-.55416.31668-.05.09584-.07916.19584-.09168.3z" fill="#99f"/></g></svg>

<svg width="10" height="10" viewBox="0 0 10 10" fill="none" xmlns="http://www.w3.org/2000/svg">
<g clip-path="url(#clip0_86_637)">
<path d="M1.77084 0.00100708H8.22916C9.20832 0.00100708 10 0.792687 10 1.77185V7.98017C10 8.95933 9.20832 9.75101 8.22916 9.75101H1.77084C0.79168 9.75101 0 8.95933 0 7.98017V1.77185C0 0.792687 0.79168 0.00100708 1.77084 0.00100708Z" fill="#00005B"/>
<path d="M4.01668 5.83432H2.46668L2.15 6.81764C2.14168 6.85512 2.10832 6.88012 2.07084 6.87596H1.28752C1.24168 6.87596 1.2292 6.85096 1.24168 6.80096L2.58336 2.95512C2.59584 2.91344 2.60836 2.87596 2.62504 2.82596C2.64172 2.73848 2.65004 2.6468 2.65004 2.55512C2.64588 2.53428 2.66252 2.51344 2.68336 2.50928H3.76252C3.79168 2.50928 3.81252 2.52176 3.81668 2.5426L5.33752 6.7926C5.35004 6.83844 5.33752 6.85928 5.29584 6.85928H4.425C4.39584 6.86344 4.36668 6.8426 4.35832 6.81344L4.01664 5.81344V5.83428L4.01668 5.83432ZM2.70836 5.00516H3.76668C3.74168 4.91768 3.70836 4.81348 3.67084 4.70516C3.63332 4.59268 3.59584 4.47184 3.55836 4.34684C3.51668 4.21768 3.4792 4.09268 3.43752 3.96352C3.39584 3.83436 3.35836 3.71352 3.32504 3.59268C3.29172 3.476 3.26256 3.36768 3.23336 3.26768H3.22504C3.18752 3.44684 3.14172 3.626 3.08336 3.8052C3.02088 4.0052 2.95836 4.21352 2.89168 4.42188C2.83752 4.63436 2.77084 4.8302 2.70836 5.0052V5.00516ZM7.79168 5.45932H6.47084C6.48752 5.58848 6.52916 5.71764 6.6 5.83016C6.675 5.94264 6.77916 6.03016 6.90416 6.08016C7.07084 6.151 7.25416 6.18848 7.43748 6.18432C7.58332 6.18016 7.72916 6.16764 7.8708 6.13848C7.99996 6.1218 8.12496 6.08848 8.24164 6.04264C8.26248 6.02596 8.27496 6.03432 8.27496 6.07596V6.71348C8.27496 6.73016 8.2708 6.7468 8.26664 6.76348C8.25832 6.776 8.24996 6.78432 8.23748 6.79264C8.10416 6.85096 7.96664 6.89264 7.8208 6.91764C7.62496 6.95512 7.42912 6.9718 7.22912 6.96764C6.91244 6.96764 6.6458 6.91764 6.42912 6.8218C6.22496 6.73428 6.0458 6.5968 5.90412 6.42596C5.7708 6.26348 5.67496 6.08012 5.61664 5.88012C5.55832 5.68428 5.52912 5.48012 5.52912 5.2718C5.52912 5.0468 5.56244 4.82596 5.63328 4.60928C5.69996 4.40096 5.80412 4.20928 5.94576 4.03844C6.08328 3.87176 6.25408 3.73844 6.44992 3.6426C6.64576 3.54676 6.87908 3.51344 7.14576 3.51344C7.3666 3.50928 7.58744 3.55096 7.7916 3.6426C7.96244 3.7176 8.11244 3.83012 8.22912 3.97592C8.33744 4.1176 8.42496 4.27592 8.47912 4.45092C8.53328 4.6176 8.55828 4.7884 8.55828 4.95924C8.55828 5.05924 8.55412 5.14676 8.54996 5.22592C8.54164 5.30508 8.53744 5.36344 8.53328 5.40092C8.52912 5.43008 8.50412 5.45508 8.47496 5.45508C8.44996 5.45508 8.40412 5.45924 8.33744 5.4634C8.27076 5.47172 8.1916 5.47592 8.09576 5.47592C7.99992 5.47592 7.89992 5.45924 7.7916 5.45924L7.79168 5.45932ZM6.47084 4.851H7.35C7.45832 4.851 7.53752 4.851 7.58748 4.84684C7.6208 4.84268 7.65416 4.83432 7.68332 4.81352V4.77184C7.68332 4.71768 7.675 4.66768 7.65832 4.61768C7.58332 4.38436 7.36248 4.226 7.11664 4.23436C6.88748 4.22184 6.6708 4.34268 6.56248 4.55104C6.51248 4.64688 6.48332 4.74688 6.4708 4.85104L6.47084 4.851Z" fill="#9999FF"/>
</g>
<defs>
<clipPath id="clip0_86_637">
<rect width="10" height="9.752" fill="white"/>
</clipPath>
</defs>
</svg>
